www/assets/icons/dialer_sip.svg

<svg xmlns="http://www.w3.org/2000/svg" width="24" height="24" viewBox="0 0 24 24" fill='currentColor'><path d="M17 3h-1v5h1zm-2 2h-2V4h2V3h-3v3h2v1h-2v1h3zm3-2v5h1V6h2V3zm2 2h-1V4h1zm0 10.5c-1.25 0-2.45-.2-3.57-.57a1 1 0 0 0-1.01.24l-2.2 2.2a15.05 15.05 0 0 1-6.59-6.59l2.2-2.21c.27-.26.35-.65.24-1A11.4 11.4 0 0 1 8.5 4c0-.55-.45-1-1-1H4c-.55 0-1 .45-1 1 0 9.39 7.61 17 17 17 .55 0 1-.45 1-1v-3.5c0-.55-.45-1-1-1"/></svg>

<svg width="24" height="24" viewBox="0 0 24 24" xmlns="http://www.w3.org/2000/svg" fill='currentColor'><path d="M17 3H16V8H17V3ZM15 5H13V4H15V3H12V6H14V7H12V8H15V5ZM18 3V8H19V6H21V3H18ZM20 5H19V4H20V5ZM20 15.5C18.75 15.5 17.55 15.3 16.43 14.93C16.08 14.82 15.69 14.9 15.42 15.17L13.22 17.37C10.39 15.93 8.07 13.62 6.63 10.78L8.83 8.57C9.1 8.31 9.18 7.92 9.07 7.57C8.7 6.45 8.5 5.25 8.5 4C8.5 3.45 8.05 3 7.5 3H4C3.45 3 3 3.45 3 4C3 13.39 10.61 21 20 21C20.55 21 21 20.55 21 20V16.5C21 15.95 20.55 15.5 20 15.5Z"/></svg>
